X: 1
T: Early One Morning
Z: 1998 by John Chambers <jc@trillian.mit.edu>
N: Tune trad; dance by Scott Higgs
B: Barnes p.33
M: 2/4
L: 1/8
K: F
|| "F"F2 FF | FA cc | "Bb"dB GF | "C7"EG EE \
|  "F"F2 FF | FA cc | "Bb"dB "C7"GE | "F"F4 ||
|: "C"G2 AB | "F"cA F2 | "C"G2 AB | "F"cA F2 \
| FA cf | "Bb"ed cB | "C7"AG FE | "F"F4 :|
